!!!!SEGMENT: pl-kk--i-540--001-002_rychling-wincenty-waclaw--kompleta-no-vi-in-manus-tuas-domine.krn
!!!cenid: 18xx:4462
!!!COM: Rychling, Wincenty Wacław
!!!COM-rismID: pe50046026
!!!CDT: 1841/01/09-1896/01/11
!!!CNT: Polish
!!!GTL: Kompleta
!!!OTL: [No. VI.]In manus tuas Domine
!!!OMV: 002
!!!PDT:
!!!AGN: Sacred
!!!YEC: Copyright 2022 Narodowy Instytut Fryderyka Chopina (https://polishscores.org)
!!!YEM: License CC-BY-4.0 (https://creativecommons.org/licenses/by/4.0)
!!!SMS-siglum: PL-Kk
!!!SMS-shelfmark: I.540
!!!SMS-variant:
!!!SMS-altvar:
!!!SMS-shelfwork: 001-002 G
!!!NIFC-rismSourceID: 1001210701
!!!NIFC-rismChildID: 1001210707
!!!NIFC-islandoraID: pl-kk:16958
!!!URL-pdf-islandora: https://repozytorium.nifc.pl/islandora/object/pl-kk%3A16958/datastream/PDF/view
!!!URL-scan: https://polish.musicsources.pl/pl/lokalizacje/galeria/rekopisy/7167/1 @EN{Scan on Polish Music Sources Website} @PL{Skany w portalu Dziedzictwo Muzyki Polskiej w otwartym dostępie}
!!!IIIF:
!!!ONB-nifc: UWAGA: źródło tylko w wersji partyturowej. Skan 1-2.
!!!OMD:
!!!AIN: 2 male
!!!key: B-
**kern	**text	**kern	**text
*part2	*part2	*part1	*part1
*staff2	*staff2	*staff1	*staff1
*I"[Voice]	*	*I"[Voice]	*
*Imale	*	*Imale	*
*ICvox	*	*ICvox	*
*clefF4	*	*clefG2	*
*	*	*ITrd8c12	*
*k[b-e-a-]	*	*k[b-e-a-]	*
*B-:	*	*B-:	*
*M4/4	*	*M4/4	*
*met(c)	*	*met(c)	*
=1	=1	=1	=1
!!LO:TX:t=P:problem=all/left
!!LO:TX:t=P:problem=all\right
*^	*	*^	*
*	*2\right	*	*	*2\right	*
!LO:TX:b:t=7 ten ustęp śpiewająksięża! a Organ wtoruje! zniemi	!	!	!	!	!
2E-/	2E-\	.	2B-/	2G\	In
4G/	4E-\	.	4e-/	4B-\	ma-
4E-/	4E-\	.	4B-/	4G\	-nus
=2	=2	=2	=2	=2	=2
2E-/	2E-\	.	2G/	2G\	tu-
2E-/	2C\	.	2A-/	[2E-\	-as
=3	=3	=3	=3	=3	=3
2F/	2.BB-\	.	2.B-/	4E-\]	Do-
.	.	.	.	4D\	.
2D/	.	.	.	4F\	.
.	4BB-\	.	4c/	4A-\	-mi-
=4	=4	=4	=4	=4	=4
2E-/	2E-\	.	2B-/	2G\	-ne
4r	4ryy	.	4r	4ryy	.
4E-/	4E-\	.	4B-/	4G\	Com-
=5	=5	=5	=5	=5	=5
2E-/	2C\	.	2c/	2G\	-men-
2E-/	2C\	.	2c/	2A\	-do
!!LO:LB:g=original
=6	=6	=6	=6	=6	=6
2F/	2BB-\	.	2d/	2B-\	spi-
4F/	4BB-\	.	4d/	4B-\	-ri-
4E-/	4E-\	.	4c/	4G\	-tum
=7	=7	=7	=7	=7	=7
2F/	2F\	.	2F/	2F\	me-
2F/	2FF\	.	2c/	2A\	.
=8	=8	=8	=8	=8	=8
1D	1BB-	.	1B-	1F	-um,
=9||	=9||	=9||	=9||	=9||	=9||
4.E-/	4.E-\	.	4.B-/	4.G\	Re-
8E-/	8E-\	.	8B-/	8G\	-de-
4E-/	4E-\	.	4B-/	4G\	-mi-
4E-/	4E-\	.	4B-/	4G\	-sti
=10	=10	=10	=10	=10	=10
2E-/	2AA-\	.	2c/	2A-\	nos
4.D/	4.BB-\	.	4.B-/	4.F\	Do-
8D/	8BB-\	.	8A-/	8F\	-mi-
=11	=11	=11	=11	=11	=11
2E-/	2C\	.	2G/	2E-\	-ne
4A-/	2C\	.	2e-/	2c\	De-
4G/	.	.	.	.	.
!!LO:PB:g=original
=12	=12	=12	=12	=12	=12
2F#X/	2D\	.	2d/	4c\	-us
.	.	.	.	4B-\	.
4F#/	4D\	.	4d/	4A\	ve-
4F#/	4D\	.	4d/	4A\	-ri-
=13	=13	=13	=13	=13	=13
2G/	2G\	.	2d/	2B-\	-ta-
2G/	2C\	.	2e-/	2c\	.
=14	=14	=14	=14	=14	=14
2F/	2F\	.	2c/	2A\	-tis
4r	4ryy	.	4r	4ryy	.
4G/	4G\	.	4B-/	4B-\	Com-
=15	=15	=15	=15	=15	=15
2E-/	2C\	.	2c/	2G\	-men-
2E-/	2C\	.	2c/	2A\	-do
=16	=16	=16	=16	=16	=16
2F/	2BB-\	.	2d/	2B-\	spi-
4F/	4BB-\	.	4d/	4B-\	-ri-
4G/	4E-\	.	4c/	4G\	-tum
=17	=17	=17	=17	=17	=17
2F/	2F\	.	2F/	2F\	me-
2F/	2FF\	.	2c/	2A\	.
=18	=18	=18	=18	=18	=18
1D	1BB-	.	1B-	1F	-um
!!LO:LB:g=original
=19||	=19||	=19||	=19||	=19||	=19||
2E-/	2E-\	.	2B-/	2G\	Glo-
4E-/	4E-\	.	4B-/	4G\	-ri-
4E-/	4E-\	.	4B-/	4G\	-a
=20	=20	=20	=20	=20	=20
2E-/	2AA-\	.	2c/	2A-\	Pa-
4E-/	4AA-\	.	4c/	4A-\	-tri
4E-/	4AA-\	.	4c/	4A-\	et
=21	=21	=21	=21	=21	=21
4E-/	2.BB-\	.	2.B-/	2.F\	fi-
4D/	.	.	.	.	.
4C/	.	.	.	.	.
4D/	4BB-\	.	4A-/	4F\	-li-
=22	=22	=22	=22	=22	=22
2G/	2C\	.	2G/	4F\	-o
.	.	.	.	4E-\	.
4A-/	4C\	.	4e-/	4c\	et
4G/	4C\	.	4e-/	4c\	Spi-
=23	=23	=23	=23	=23	=23
2F#X/	2D\	.	2d/	4c\	-ri-
.	.	.	.	4A\	.
4G/	4G\	.	4d/	4B\	-tu-
4G/	4G\	.	4d/	4B\	-i
!!LO:LB:g=original
=24	=24	=24	=24	=24	=24
2G/	2C\	.	2e-/	2c\	Sanc-
2F/	2F\	.	2c/	2A\	.
=25	=25	=25	=25	=25	=25
1F	1BB-;	.	1d;	1B-	-to
*v	*v	*	*	*	*
*	*	*v	*v	*
==	==	==	==
*-	*-	*-	*-
!!!system-decoration: {(s1,s2)}
!!!ENC: Andrzej Gręziak
!!!END: 2023-10-27
!!!EED: Marta Chmielewska
!!!EEV: 2024-04-18
